src/assets/duotone/CpuSetting.svg

<svg width="24" height="24" viewBox="0 0 24 24"  xmlns="http://www.w3.org/2000/svg">
<path opacity="0.4" d="M20 9V11.92L19.22 11.47C18.58 11.1 17.78 11.21 17.26 11.71C17.15 11.81 17.06 11.93 16.98 12.06L16.92 12.17C16.81 12.36 16.72 12.41 16.71 12.42C16.69 12.41 16.59 12.36 16.48 12.16L16.42 12.06C16.2 11.68 15.85 11.42 15.43 11.31C15 11.19 14.56 11.25 14.19 11.47L13.28 12C12.87 12.23 12.58 12.61 12.46 13.06C12.34 13.52 12.4 13.99 12.63 14.4C12.74 14.58 12.74 14.69 12.74 14.71C12.73 14.72 12.63 14.78 12.41 14.78C11.44 14.78 10.65 15.57 10.65 16.53V17.47C10.65 18.43 11.44 19.22 12.41 19.22C12.63 19.22 12.73 19.28 12.73 19.29C12.74 19.3 12.74 19.42 12.63 19.6C12.56 19.73 12.5 19.86 12.47 20H9C6.24 20 4 17.76 4 15V9C4 6.24 6.24 4 9 4H15C17.76 4 20 6.24 20 9Z" />
<path d="M17.2602 9.74023V11.7102C17.1502 11.8102 17.0602 11.9302 16.9802 12.0602L16.9202 12.1702C16.8102 12.3602 16.7202 12.4102 16.7102 12.4202C16.6902 12.4102 16.5902 12.3602 16.4802 12.1602L16.4202 12.0602C16.2002 11.6802 15.8502 11.4202 15.4302 11.3102C15.0002 11.1902 14.5602 11.2502 14.1902 11.4702L13.2802 12.0002C12.8702 12.2302 12.5802 12.6102 12.4602 13.0602C12.3402 13.5202 12.4002 13.9902 12.6302 14.4002C12.7402 14.5802 12.7402 14.6902 12.7402 14.7102C12.7302 14.7202 12.6302 14.7802 12.4102 14.7802C11.4402 14.7802 10.6502 15.5702 10.6502 16.5302V17.2602H9.74023C8.09023 17.2602 6.74023 15.9102 6.74023 14.2602V9.74023C6.74023 8.09023 8.09023 6.74023 9.74023 6.74023H14.2602C15.9102 6.74023 17.2602 8.09023 17.2602 9.74023Z" />
<path d="M9.06006 2.75V4H9.00006C8.50006 4 8.02006 4.07 7.56006 4.21V2.75C7.56006 2.34 7.89006 2 8.31006 2C8.72006 2 9.06006 2.34 9.06006 2.75Z" />
<path d="M12.75 2.75V4H11.25V2.75C11.25 2.34 11.59 2 12 2C12.41 2 12.75 2.34 12.75 2.75Z" />
<path d="M16.4502 2.75V4.21C15.9902 4.07 15.5002 4 15.0002 4H14.9502V2.75C14.9502 2.34 15.2902 2 15.7002 2C16.1102 2 16.4502 2.34 16.4502 2.75Z" />
<path d="M22 8.2998C22 8.7198 21.67 9.0498 21.25 9.0498H20V8.9998C20 8.4998 19.93 8.0098 19.79 7.5498H21.25C21.67 7.5498 22 7.8898 22 8.2998Z" />
<path d="M9.06006 20V21.25C9.06006 21.66 8.72006 22 8.31006 22C7.89006 22 7.56006 21.66 7.56006 21.25V19.79C8.02006 19.93 8.50006 20 9.00006 20H9.06006Z" />
<path d="M4.21 7.5498C4.07 8.0098 4 8.4998 4 8.9998V9.0498H2.75C2.34 9.0498 2 8.7198 2 8.2998C2 7.8898 2.34 7.5498 2.75 7.5498H4.21Z" />
<path d="M4 11.25V12.75H2.75C2.34 12.75 2 12.41 2 12C2 11.58 2.34 11.25 2.75 11.25H4Z" />
<path d="M4.21 16.4502H2.75C2.34 16.4502 2 16.1102 2 15.7002C2 15.2802 2.34 14.9502 2.75 14.9502H4V15.0002C4 15.5002 4.07 15.9902 4.21 16.4502Z" />
<path opacity="0.4" d="M20.9899 15.5295C20.3099 15.5295 19.9199 15.1895 19.9199 14.6895C19.9199 14.4895 19.9799 14.2595 20.1199 14.0195C20.3999 13.5395 20.2299 12.9195 19.7499 12.6495L18.8399 12.1195C18.4199 11.8695 17.8799 12.0195 17.6299 12.4395L17.5699 12.5395C17.0899 13.3695 16.3099 13.3695 15.8299 12.5395L15.7699 12.4395C15.5299 12.0195 14.9799 11.8695 14.5699 12.1195L13.6499 12.6495C13.3299 12.8295 13.1399 13.1695 13.1399 13.5195C13.1399 13.6895 13.1899 13.8595 13.2799 14.0195C13.4199 14.2595 13.4899 14.4895 13.4899 14.6895C13.4899 15.1895 13.0899 15.5295 12.4099 15.5295C11.8599 15.5295 11.3999 15.9795 11.3999 16.5295V17.4695C11.3999 18.0195 11.8599 18.4695 12.4099 18.4695C13.0899 18.4695 13.4899 18.8095 13.4899 19.3095C13.4899 19.5095 13.4199 19.7395 13.2799 19.9795C12.9999 20.4595 13.1699 21.0795 13.6499 21.3495L14.5699 21.8795C14.9799 22.1295 15.5299 21.9795 15.7699 21.5595L15.8299 21.4595C16.3099 20.6295 17.0899 20.6295 17.5699 21.4595L17.6299 21.5595C17.8799 21.9795 18.4199 22.1295 18.8399 21.8795L19.7499 21.3495C20.0699 21.1695 20.2599 20.8295 20.2599 20.4795C20.2599 20.3095 20.2099 20.1395 20.1199 19.9795C19.9799 19.7395 19.9199 19.5095 19.9199 19.3095C19.9199 18.8095 20.3099 18.4695 20.9899 18.4695C21.5499 18.4695 21.9999 18.0195 21.9999 17.4695V16.5295C21.9999 15.9795 21.5499 15.5295 20.9899 15.5295ZM16.6999 18.7195C15.7499 18.7195 14.9799 17.9495 14.9799 16.9995C14.9799 16.0495 15.7499 15.2795 16.6999 15.2795C17.6499 15.2795 18.4199 16.0495 18.4199 16.9995C18.4199 17.9495 17.6499 18.7195 16.6999 18.7195Z" />
<path d="M18.42 17.0003C18.42 17.9503 17.65 18.7203 16.7 18.7203C15.75 18.7203 14.98 17.9503 14.98 17.0003C14.98 16.0503 15.75 15.2803 16.7 15.2803C17.65 15.2803 18.42 16.0503 18.42 17.0003Z" />
</svg>

<?xml version="1.0" encoding="UTF-8"?>
<svg width="24" height="24" viewBox="0 0 24 24" xmlns="http://www.w3.org/2000/svg">
 <path d="m20 9v2.92l-0.78-0.45c-0.64-0.37-1.44-0.26-1.96 0.24-0.11 0.1-0.2 0.22-0.28 0.35l-0.06 0.11c-0.11 0.19-0.2 0.24-0.21 0.25-0.02-0.01-0.12-0.06-0.23-0.26l-0.06-0.1c-0.22-0.38-0.57-0.64-0.99-0.75-0.43-0.12-0.87-0.06-1.24 0.16l-0.91 0.53c-0.41 0.23-0.7 0.61-0.82 1.06-0.12 0.46-0.06 0.93 0.17 1.34 0.11 0.18 0.11 0.29 0.11 0.31-0.01 0.01-0.11 0.07-0.33 0.07-0.97 0-1.76 0.79-1.76 1.75v0.94c0 0.96 0.79 1.75 1.76 1.75 0.22 0 0.32 0.06 0.32 0.07 0.01 0.01 0.01 0.13-0.1 0.31-0.07 0.13-0.13 0.26-0.16 0.4h-3.47c-2.76 0-5-2.24-5-5v-6c0-2.76 2.24-5 5-5h6c2.76 0 5 2.24 5 5z" opacity=".4"/>
 <path d="m17.26 9.7402v1.97c-0.11 0.1-0.2 0.22-0.28 0.35l-0.06 0.11c-0.11 0.19-0.2 0.24-0.21 0.25-0.02-0.01-0.12-0.06-0.23-0.26l-0.06-0.1c-0.22-0.38-0.57-0.64-0.99-0.75-0.43-0.12-0.87-0.06-1.24 0.16l-0.91 0.53c-0.41 0.23-0.7 0.61-0.82 1.06-0.12 0.46-0.06 0.93 0.17 1.34 0.11 0.18 0.11 0.29 0.11 0.31-0.01 0.01-0.11 0.07-0.33 0.07-0.97 0-1.76 0.79-1.76 1.75v0.73h-0.90997c-1.65 0-3-1.35-3-3v-4.52c0-1.65 1.35-3 3-3h4.52c1.65 0 3 1.35 3 3z"/>
 <path d="m9.0601 2.75v1.25h-0.06c-0.5 0-0.98 0.07-1.44 0.21v-1.46c0-0.41 0.33-0.75 0.75-0.75 0.41 0 0.75 0.34 0.75 0.75z"/>
 <path d="m12.75 2.75v1.25h-1.5v-1.25c0-0.41 0.34-0.75 0.75-0.75s0.75 0.34 0.75 0.75z"/>
 <path d="m16.45 2.75v1.46c-0.46-0.14-0.95-0.21-1.45-0.21h-0.05v-1.25c0-0.41 0.34-0.75 0.75-0.75s0.75 0.34 0.75 0.75z"/>
 <path d="m22 8.2998c0 0.42-0.33 0.75-0.75 0.75h-1.25v-0.05c0-0.5-0.07-0.99-0.21-1.45h1.46c0.42 0 0.75 0.34 0.75 0.75z"/>
 <path d="m9.0601 20v1.25c0 0.41-0.34 0.75-0.75 0.75-0.42 0-0.75-0.34-0.75-0.75v-1.46c0.46 0.14 0.94 0.21 1.44 0.21h0.06z"/>
 <path d="m4.21 7.5498c-0.14 0.46-0.21 0.95-0.21 1.45v0.05h-1.25c-0.41 0-0.75-0.33-0.75-0.75 0-0.41 0.34-0.75 0.75-0.75h1.46z"/>
 <path d="M4 11.25V12.75H2.75C2.34 12.75 2 12.41 2 12C2 11.58 2.34 11.25 2.75 11.25H4Z"/>
 <path d="m4.21 16.45h-1.46c-0.41 0-0.75-0.34-0.75-0.75 0-0.42 0.34-0.75 0.75-0.75h1.25v0.05c0 0.5 0.07 0.99 0.21 1.45z"/>
 <path d="m20.99 15.53c-0.68 0-1.07-0.34-1.07-0.84 0-0.2 0.06-0.43 0.2-0.67 0.28-0.48 0.11-1.1-0.37-1.37l-0.91-0.53c-0.42-0.25-0.96-0.1-1.21 0.32l-0.06 0.1c-0.48 0.83-1.26 0.83-1.74 0l-0.06-0.1c-0.24-0.42-0.79-0.57-1.2-0.32l-0.92 0.53c-0.32 0.18-0.51 0.52-0.51 0.87 0 0.17 0.05 0.34 0.14 0.5 0.14 0.24 0.21 0.47 0.21 0.67 0 0.5-0.4 0.84-1.08 0.84-0.55 0-1.01 0.45-1.01 1v0.94c0 0.55 0.46 1 1.01 1 0.68 0 1.08 0.34 1.08 0.84 0 0.2-0.07 0.43-0.21 0.67-0.28 0.48-0.11 1.1 0.37 1.37l0.92 0.53c0.41 0.25 0.96 0.1 1.2-0.32l0.06-0.1c0.48-0.83 1.26-0.83 1.74 0l0.06 0.1c0.25 0.42 0.79 0.57 1.21 0.32l0.91-0.53c0.32-0.18 0.51-0.52 0.51-0.87 0-0.17-0.05-0.34-0.14-0.5-0.14-0.24-0.2-0.47-0.2-0.67 0-0.5 0.39-0.84 1.07-0.84 0.56 0 1.01-0.45 1.01-1v-0.94c0-0.55-0.45-1-1.01-1zm-4.29 3.19c-0.95 0-1.72-0.77-1.72-1.72s0.77-1.72 1.72-1.72 1.72 0.77 1.72 1.72-0.77 1.72-1.72 1.72z" opacity=".4"/>
 <path d="m18.42 17c0 0.95-0.77 1.72-1.72 1.72s-1.72-0.77-1.72-1.72 0.77-1.72 1.72-1.72 1.72 0.77 1.72 1.72z"/>
</svg>
